images/social/zhanku.svg

<svg height="30" viewBox="0 0 30 30" width="30" xmlns="http://www.w3.org/2000/svg"><g fill="#fff" fill-rule="nonzero"><path d="m18.7829795 6.41191657-.0222394.00090236c-.2423151.01020938-.4771891.11069526-.6535197.29002095-1.6479854 1.6782257-2.9493427 2.21359161-4.9466901 2.24790298-2.2417223.0386213-4.37837843 1.07039814-5.86301603 2.82776824-1.47370924 1.7436111-2.12747353 3.9975863-1.78968287 6.1849227.53944518 3.498521 3.15972409 6.1262017 6.6603664 6.6793504.4376178.0691071.8746027.1035878 1.3080418.1035878 2.8993869 0 5.4808877-1.5427265 6.943564-4.1637096.108922-.19478.3006345-.3998666.5164907-.5478187 1.4153027-.9683813 2.4455403-2.2302262 3.0518896-3.7435936.0529522-.1323555.09228-.2556325.1372395-.427234l.111801-.4559951c.0943016-.3707472-.0442605-.7685569-.352994-1.0047781l-.1061917-.0707313c-.1463272-.0841775-.3102265-.1277395-.4751286-.1295807l-.0569101.0020691.0728729-.0916528c.3614833-.4808216.6217822-.9684312.7942512-1.503625.5483191-1.7017248.5650612-3.29673919.0514084-4.98408612-.1086475-.35669413-.4117256-.61971461-.7800188-.6773655-.3619592-.06294279-.7320135.095471-.9473342.40034923l-.1998197.27414114c-.8123925 1.07355324-1.7802546 1.86985461-2.8355063 2.3487429l-.1418535.05949615.0662073-.1579203c.3972867-.9828238.5308-1.7169701.4437303-2.58571766l-.020431-.12313003c-.065451-.28155456-.2529281-.51975107-.5115389-.64915164l-.1145619-.04843857-.1197629-.03351651-.0291535-.00417466c-.0678506-.01534981-.1318033-.02051478-.1915099-.01703406zm-.1939795 1.49708343-.0095146.14534276c-.0555709.59610395-.277915 1.23009715-.7089258 2.14320204l-.2560429.5271875c-.2202545.44312.1603804.9473611.6468944.8569649l.2840794-.0589624c1.6963847-.3892509 3.243998-1.4147715 4.4746047-2.95201409l.1169048-.15172071.0410857.17263479c.2671282 1.22243265.1987726 2.39031921-.2071274 3.65004221-.2839962.8812773-.9337359 1.6617153-2.0849753 2.6401127-.4517148.3838965-.1323439 1.1205863.4566364 1.0533189l.3029795-.0390547c.3964452-.0572702.7621211-.1357402 1.0891073-.2403419l.2242938-.078712-.0133177.0518196c-.0246885.0880708-.0468161.1546378-.0715286.2164076-.5164696 1.289039-1.3933293 2.3630254-2.6158915 3.1995295-.3649309.2501306-.6842078.5916805-.8860754.9526717-1.252673 2.2446758-3.4351521 3.5489436-5.8959472 3.5489436-.3705838 0-.7449877-.0295427-1.1208054-.0888906-2.98535733-.4717266-5.20173123-2.6943614-5.66163979-5.677055-.28426276-1.8407209.26843852-3.7462624 1.52030206-5.227398 1.20005371-1.4205072 2.89460333-2.2808443 4.68383593-2.3912846l.2832389-.0111785c2.1135915-.0363082 3.6367175-.59347407 5.3187388-2.15540378z"/><path d="m7.38641838 17.1623962c.10460643.3289301.45698361.6156664.9861299.8455991.23880263.1037681.49632752.1885526.75406558.2553129l.20306276.0488826.13674179.0273572.3647921.0624772-.25215491.2709143c-.50531652.5429103-.99255735.7104908-1.43451639.5170743-.33894407-.1483337-.60597567-.4890341-.82305857-.9616661-.09712128-.2114521-.17781667-.4364637-.24335403-.661285l-.04896398-.1789196-.02916263-.1244791z"/><path d="m17.87074 16-.6693843.5788086c-.5066476.4380921-1.3214469.8147708-2.3561705 1.1272251-.6613651.1997116-1.3715029.3612164-2.0818538.4874691l-.4916757.081847-.4529647.0626513-.3973742.0459424.2751907.2903223c1.7886165 1.8869652 3.4832895 1.4653727 4.8938088-.3441213.2588811-.3321073.4870918-.6869536.6830274-1.0417792l.066308-.1222818.1059474-.206723.0697326-.1489411z"/></g></svg>

<?xml version="1.0" encoding="UTF-8"?>
<svg width="30px" height="30px" viewBox="0 0 30 30" version="1.1" xmlns="http://www.w3.org/2000/svg" xmlns:xlink="http://www.w3.org/1999/xlink">
    <title>zhanku</title>
    <g id="zhanku" stroke="none" stroke-width="1" fill="none" fill-rule="evenodd">
        <path d="M18.7829795,6.41191657 L18.7607401,6.41281893 C18.518425,6.42302831 18.283551,6.52351419 18.1072204,6.70283988 C16.459235,8.38106558 15.1578777,8.91643149 13.1605303,8.95074286 C10.918808,8.98936416 8.78215187,10.021141 7.29751427,11.7785111 C5.82380503,13.5221222 5.17004074,15.7760974 5.5078314,17.9634338 C6.04727658,21.4619548 8.66755549,24.0896355 12.1681978,24.6427842 C12.6058156,24.7118913 13.0428005,24.746372 13.4762396,24.746372 C16.3756265,24.746372 18.9571273,23.2036455 20.4198036,20.5826624 C20.5287256,20.3878824 20.7204381,20.1827958 20.9362943,20.0348437 C22.351597,19.0664624 23.3818346,17.8046175 23.9881839,16.2912501 C24.0411361,16.1588946 24.0804639,16.0356176 24.1254234,15.8640161 L24.2372244,15.408021 C24.331526,15.0372738 24.1929639,14.6394641 23.8842304,14.4032429 L23.7780387,14.3325116 C23.6317115,14.2483341 23.4678122,14.2047721 23.3029101,14.2029309 L23.246,14.205 L23.3188729,14.1133472 C23.6803562,13.6325256 23.9406551,13.144916 24.1131241,12.6097222 C24.6614432,10.9079974 24.6781853,9.31298301 24.1645325,7.62563608 C24.055885,7.26894195 23.7528069,7.00592147 23.3845137,6.94827058 C23.0225545,6.88532779 22.6525002,7.04374158 22.4371795,7.34861981 L22.2373598,7.62276095 C21.4249673,8.69631419 20.4571052,9.49261556 19.4018535,9.97150385 L19.26,10.031 L19.3262073,9.8730797 C19.723494,8.8902559 19.8570073,8.1561096 19.7699376,7.28736204 L19.7495066,7.16423201 C19.6840556,6.88267745 19.4965785,6.64448094 19.2379677,6.51508037 L19.1234058,6.4666418 L19.0036429,6.43312529 L18.9744894,6.42895063 C18.9066388,6.41360082 18.8426861,6.40843585 18.7829795,6.41191657 Z M18.589,7.909 L18.5794854,8.05434276 C18.5239145,8.65044671 18.3015704,9.28443991 17.8705596,10.1975448 L17.6145167,10.7247323 C17.3942622,11.1678523 17.7748971,11.6720934 18.2614111,11.5816972 L18.5454905,11.5227348 C20.2418752,11.1334839 21.7894885,10.1079633 23.0200952,8.57072071 L23.137,8.419 L23.1780857,8.59163479 C23.4452139,9.81406744 23.3768583,10.981954 22.9709583,12.241677 C22.6869621,13.1229543 22.0372224,13.9033923 20.885983,14.8817897 C20.4342682,15.2656862 20.7536391,16.002376 21.3426194,15.9351086 L21.6455989,15.8960539 C22.0420441,15.8387837 22.40772,15.7603137 22.7347062,15.655712 L22.959,15.577 L22.9456823,15.6288196 C22.9209938,15.7168904 22.8988662,15.7834574 22.8741537,15.8452272 C22.3576841,17.1342662 21.4808244,18.2082526 20.2582622,19.0447567 C19.8933313,19.2948873 19.5740544,19.6364372 19.3721868,19.9974284 C18.1195138,22.2421042 15.9370347,23.546372 13.4762396,23.546372 C13.1056558,23.546372 12.7312519,23.5168293 12.3554342,23.4574814 C9.37007687,22.9857548 7.15370297,20.76312 6.69379441,17.7804264 C6.40953165,15.9397055 6.96223293,14.034164 8.21409647,12.5530284 C9.41415018,11.1325212 11.1086998,10.2721841 12.8979324,10.1617438 L13.1811713,10.1505653 C15.2947628,10.1142571 16.8178888,9.55709123 18.4999101,7.99516152 L18.589,7.909 Z" id="形状" fill="#FFFFFF" fill-rule="nonzero"></path>
        <path d="M7.38641838,17.1623962 C7.49102481,17.4913263 7.84340199,17.7780626 8.37254828,18.0079953 C8.61135091,18.1117634 8.8688758,18.1965479 9.12661386,18.2633082 L9.32967662,18.3121908 L9.46641841,18.339548 L9.83121051,18.4020252 L9.5790556,18.6729395 C9.07373908,19.2158498 8.58649825,19.3834303 8.14453921,19.1900138 C7.80559514,19.0416801 7.53856354,18.7009797 7.32148064,18.2283477 C7.22435936,18.0168956 7.14366397,17.791884 7.07812661,17.5670627 L7.02916263,17.3881431 L7,17.263664 L7.38641838,17.1623962 Z" id="路径" fill="#FFFFFF" fill-rule="nonzero"></path>
        <path d="M17.87074,16 L17.2013557,16.5788086 C16.6947081,17.0169007 15.8799088,17.3935794 14.8451852,17.7060337 C14.1838201,17.9057453 13.4736823,18.0672501 12.7633314,18.1935028 L12.2716557,18.2753498 L11.818691,18.3380011 L11.4213168,18.3839435 L11.6965075,18.6742658 C13.485124,20.561231 15.179797,20.1396385 16.5903163,18.3301445 C16.8491974,17.9980372 17.0774081,17.6431909 17.2733437,17.2883653 L17.3396517,17.1660835 L17.4455991,16.9593605 L17.5153317,16.8104194 L17.87074,16 Z" id="路径" fill="#FFFFFF" fill-rule="nonzero"></path>
    </g>
</svg>
